X: 12
T:The Prophecy
M:4/4
L:1/8
Q:180
C:Words and music by Catherine Faber, (c) 1994
A:Filk
D:On the tape, "Bin There, Dun That"
W:In ages ill remembered, the prophecy was told.
W:"A youngster of the
W:Clan Tremere will rise against the old."
W:Long the elders pondered
W:and a stern solution found.
W:That all who of the blood are got shall
W:by the blood be bound.
W:Chorus:
W:Magic's key is magic; nothing
W:comes for free.
W:You sacrificed the sight of day to glimpse
W:eternity.
W:With mastery comes misery; you father what you
W:fear.
W:The fledgling one of you will get will slay the Clan Tremere.
K:F
"mf" z6 C2|D2 D2 D2 E F-|F2 D4 D2|C C3 A,2 C2|D4 z2 A,2|
D2 D2 D2 E2|F2 G A3 A2|B3 A G2 F E-|E4 z4|
D2 D D3 E2|F2 G2 A2 A2|B3 A G F3|G4 z2 A2|
A2 D2 D2 E2|F G3 A2 D2|C2 G E2 C3|D4 z4|
"Chorus:" D2 D2 D2 E2|F2 D4 z2|C C3 A,2 C2|D6 A,2|
D2 D D4 E|F2 G A3 A2|B3 A G2 F2|E4 z2 A2|
A2 G F3 F2|G F2 E3 E|F2 E D3 D|_D4 z2 A,2|
D3 D D E3|F G2 A3 D2|C2 G E3 CD|D4 z4||
